images/stETH.svg

<svg height="250" viewBox="0 0 250 250" width="250" xmlns="http://www.w3.org/2000/svg" xmlns:xlink="http://www.w3.org/1999/xlink"><filter id="a" height="100%" width="100%" x="0%" y="0%"><feColorMatrix in="SourceGraphic" type="matrix" values="0 0 0 0 1 0 0 0 0 1 0 0 0 0 1 0 0 0 1 0"/></filter><mask id="b"><g filter="url(#a)"><path d="m0 0h250v250h-250z" fill-opacity=".6"/></g></mask><clipPath id="c"><path d="m0 0h250v250h-250z"/></clipPath><mask id="d"><g filter="url(#a)"><path d="m0 0h250v250h-250z" fill-opacity=".6"/></g></mask><clipPath id="e"><path d="m0 0h250v250h-250z"/></clipPath><mask id="f"><g filter="url(#a)"><path d="m0 0h250v250h-250z" fill-opacity=".2"/></g></mask><clipPath id="g"><path d="m0 0h250v250h-250z"/></clipPath><mask id="h"><g filter="url(#a)"><path d="m0 0h250v250h-250z" fill-opacity=".2"/></g></mask><clipPath id="i"><path d="m0 0h250v250h-250z"/></clipPath><mask id="j"><g filter="url(#a)"><path d="m0 0h250v250h-250z" fill-opacity=".6"/></g></mask><clipPath id="k"><path d="m0 0h250v250h-250z"/></clipPath><mask id="l"><g filter="url(#a)"><path d="m0 0h250v250h-250z" fill-opacity=".6"/></g></mask><clipPath id="m"><path d="m0 0h250v250h-250z"/></clipPath><path d="m82.898438 117.425781-1.144532 1.753907c-12.890625 19.773437-10.011718 45.667968 6.921875 62.257812 9.960938 9.761719 23.015625 14.640625 36.070313 14.640625 0 0 0 0-41.847656-78.652344zm0 0" fill="#00a3ff"/><g clip-path="url(#c)" mask="url(#b)"><path d="m124.746094 141.332031-41.847656-23.90625c41.847656 78.652344 41.847656 78.652344 41.847656 78.652344 0-17.128906 0-36.757813 0-54.746094zm0 0" fill="#00a3ff"/></g><g clip-path="url(#e)" mask="url(#d)"><path d="m166.636719 117.425781 1.144531 1.753907c12.890625 19.773437 10.011719 45.667968-6.921875 62.257812-9.960937 9.761719-23.015625 14.640625-36.070313 14.640625 0 0 0 0 41.847657-78.652344zm0 0" fill="#00a3ff"/></g><g clip-path="url(#g)" mask="url(#f)"><path d="m124.789062 141.332031 41.847657-23.90625c-41.847657 78.652344-41.847657 78.652344-41.847657 78.652344 0-17.128906 0-36.757813 0-54.746094zm0 0" fill="#00a3ff"/></g><g clip-path="url(#i)" mask="url(#h)"><path d="m124.796875 87.933594v41.230468l36.046875-20.601562zm0 0" fill="#00a3ff"/></g><g clip-path="url(#k)" mask="url(#j)"><path d="m124.796875 87.933594-36.074219 20.628906 36.074219 20.601562zm0 0" fill="#00a3ff"/></g><path d="m124.796875 53.25-36.074219 55.3125 36.074219-20.683594zm0 0" fill="#00a3ff"/><g clip-path="url(#m)" mask="url(#l)"><path d="m124.796875 87.878906 36.078125 20.6875-36.078125-55.34375zm0 0" fill="#00a3ff"/></g></svg>

<svg xmlns="http://www.w3.org/2000/svg" xmlns:xlink="http://www.w3.org/1999/xlink" width="250px" height="250px" viewBox="0 0 250 250" version="1.1">
<defs>
<filter id="alpha" filterUnits="objectBoundingBox" x="0%" y="0%" width="100%" height="100%">
  <feColorMatrix type="matrix" in="SourceGraphic" values="0 0 0 0 1 0 0 0 0 1 0 0 0 0 1 0 0 0 1 0"/>
</filter>
<mask id="mask0">
  <g filter="url(#alpha)">
<rect x="0" y="0" width="250" height="250" style="fill:rgb(0%,0%,0%);fill-opacity:0.6;stroke:none;"/>
  </g>
</mask>
<clipPath id="clip1">
  <rect x="0" y="0" width="250" height="250"/>
</clipPath>
<g id="surface5" clip-path="url(#clip1)">
<path style=" stroke:none;fill-rule:nonzero;fill:rgb(0%,63.921571%,100%);fill-opacity:1;" d="M 124.746094 141.332031 L 82.898438 117.425781 C 124.746094 196.078125 124.746094 196.078125 124.746094 196.078125 C 124.746094 178.949219 124.746094 159.320312 124.746094 141.332031 Z M 124.746094 141.332031 "/>
</g>
<mask id="mask1">
  <g filter="url(#alpha)">
<rect x="0" y="0" width="250" height="250" style="fill:rgb(0%,0%,0%);fill-opacity:0.6;stroke:none;"/>
  </g>
</mask>
<clipPath id="clip2">
  <rect x="0" y="0" width="250" height="250"/>
</clipPath>
<g id="surface8" clip-path="url(#clip2)">
<path style=" stroke:none;fill-rule:nonzero;fill:rgb(0%,63.921571%,100%);fill-opacity:1;" d="M 166.636719 117.425781 L 167.78125 119.179688 C 180.671875 138.953125 177.792969 164.847656 160.859375 181.4375 C 150.898438 191.199219 137.84375 196.078125 124.789062 196.078125 C 124.789062 196.078125 124.789062 196.078125 166.636719 117.425781 Z M 166.636719 117.425781 "/>
</g>
<mask id="mask2">
  <g filter="url(#alpha)">
<rect x="0" y="0" width="250" height="250" style="fill:rgb(0%,0%,0%);fill-opacity:0.2;stroke:none;"/>
  </g>
</mask>
<clipPath id="clip3">
  <rect x="0" y="0" width="250" height="250"/>
</clipPath>
<g id="surface11" clip-path="url(#clip3)">
<path style=" stroke:none;fill-rule:nonzero;fill:rgb(0%,63.921571%,100%);fill-opacity:1;" d="M 124.789062 141.332031 L 166.636719 117.425781 C 124.789062 196.078125 124.789062 196.078125 124.789062 196.078125 C 124.789062 178.949219 124.789062 159.320312 124.789062 141.332031 Z M 124.789062 141.332031 "/>
</g>
<mask id="mask3">
  <g filter="url(#alpha)">
<rect x="0" y="0" width="250" height="250" style="fill:rgb(0%,0%,0%);fill-opacity:0.2;stroke:none;"/>
  </g>
</mask>
<clipPath id="clip4">
  <rect x="0" y="0" width="250" height="250"/>
</clipPath>
<g id="surface14" clip-path="url(#clip4)">
<path style=" stroke:none;fill-rule:nonzero;fill:rgb(0%,63.921571%,100%);fill-opacity:1;" d="M 124.796875 87.933594 L 124.796875 129.164062 L 160.84375 108.5625 Z M 124.796875 87.933594 "/>
</g>
<mask id="mask4">
  <g filter="url(#alpha)">
<rect x="0" y="0" width="250" height="250" style="fill:rgb(0%,0%,0%);fill-opacity:0.6;stroke:none;"/>
  </g>
</mask>
<clipPath id="clip5">
  <rect x="0" y="0" width="250" height="250"/>
</clipPath>
<g id="surface17" clip-path="url(#clip5)">
<path style=" stroke:none;fill-rule:nonzero;fill:rgb(0%,63.921571%,100%);fill-opacity:1;" d="M 124.796875 87.933594 L 88.722656 108.5625 L 124.796875 129.164062 Z M 124.796875 87.933594 "/>
</g>
<mask id="mask5">
  <g filter="url(#alpha)">
<rect x="0" y="0" width="250" height="250" style="fill:rgb(0%,0%,0%);fill-opacity:0.6;stroke:none;"/>
  </g>
</mask>
<clipPath id="clip6">
  <rect x="0" y="0" width="250" height="250"/>
</clipPath>
<g id="surface20" clip-path="url(#clip6)">
<path style=" stroke:none;fill-rule:nonzero;fill:rgb(0%,63.921571%,100%);fill-opacity:1;" d="M 124.796875 87.878906 L 160.875 108.566406 L 124.796875 53.222656 Z M 124.796875 87.878906 "/>
</g>
</defs>
<g id="surface1">
<path style=" stroke:none;fill-rule:nonzero;fill:rgb(0%,63.921571%,100%);fill-opacity:1;" d="M 82.898438 117.425781 L 81.753906 119.179688 C 68.863281 138.953125 71.742188 164.847656 88.675781 181.4375 C 98.636719 191.199219 111.691406 196.078125 124.746094 196.078125 C 124.746094 196.078125 124.746094 196.078125 82.898438 117.425781 Z M 82.898438 117.425781 "/>
<use xlink:href="#surface5" mask="url(#mask0)"/>
<use xlink:href="#surface8" mask="url(#mask1)"/>
<use xlink:href="#surface11" mask="url(#mask2)"/>
<use xlink:href="#surface14" mask="url(#mask3)"/>
<use xlink:href="#surface17" mask="url(#mask4)"/>
<path style=" stroke:none;fill-rule:nonzero;fill:rgb(0%,63.921571%,100%);fill-opacity:1;" d="M 124.796875 53.25 L 88.722656 108.5625 L 124.796875 87.878906 Z M 124.796875 53.25 "/>
<use xlink:href="#surface20" mask="url(#mask5)"/>
</g>
</svg>
